X: 7454
T: Clumsy Lover, The
R: jig
M: 6/8
K: Gmajor
|:BdB dBd|cec =fed|BdB dBd|cAB cAc|
BdB dBd|cec =fed|BdB cA=F|AGF G2A:|
|:Bdd gdB|cdd gdc|Bdd gdB|cAB cAc|
Bdd gdB|cdd gdc|BdB cA=F|AGF G2A:|
|:BBB ddd|ccc =fed|BBB ddd|cABcAc|
BBB ddd|ccc =fed|BdB cA=F|AGF G2A:|
|:Bgg dgB|cgg dgc|Bgg dgB|A2B cBA|
Bgg dgB|cgg dgc|BdB cA=F|AGF G2A:|

